X: 59
T: Little Jeannette
R: reel
M: 2/4
L: 1/8
Z: 2012 John Chambers <jc:trillian.mit.edu>
B: Saml. Ann & Peter Thompson "Twenty Four Country Dances for the Year 1791", London 1791, p.30 #1
K: D
% - - - - - - - - - - - - - - - - - - - - - - - - -
|:\
d2fa | d2fa | gbef | dcBA |\
d2fa | d2fa | (g/a/b/g/) (e/f/g/e/) | d2D2 :|
|:\
[AF][AF][A2F2] | [BG][BG][B2G2] | cBcA | d/e/f/g/ aa |\
[AF][AF][A2F2] | [BG][BG][B2G2] | ceAc | dA FD :|
% - - - - - - - - Dance description - - - - - - - -
%%begintext align
%% 1st Cu: Allemane .|. 2d Cu: do the same :|.
%% Promenade 3 Cu: round .|:
%% 1st and 2d Cu: Poussett :|:
%%endtext

%%sep 1 1 500
%%sep 1 1 500
